images/gitHubLogo.svg

<svg x="0" y="0" width="32.579px" height="31.775px" viewBox="0 0 32.579 31.775">
	<path
		d="M16.288,0C7.294,0,0,7.293,0,16.291 c0,7.196,4.667,13.302,11.141,15.456c0.815,0.149,1.112-0.353,1.112-0.785c0-0.387-0.014-1.411-0.022-2.77 c-4.531,0.984-5.487-2.184-5.487-2.184c-0.741-1.882-1.809-2.383-1.809-2.383c-1.479-1.011,0.112-0.99,0.112-0.99 c1.635,0.115,2.495,1.679,2.495,1.679c1.453,2.489,3.813,1.771,4.741,1.354c0.148-1.053,0.569-1.771,1.034-2.178 c-3.617-0.411-7.42-1.809-7.42-8.051c0-1.778,0.635-3.232,1.677-4.371c-0.168-0.412-0.727-2.068,0.16-4.311 c0,0,1.368-0.438,4.479,1.67c1.299-0.361,2.693-0.542,4.078-0.548c1.383,0.006,2.777,0.187,4.078,0.548 c3.11-2.108,4.475-1.67,4.475-1.67c0.889,2.243,0.33,3.899,0.162,4.311c1.044,1.139,1.674,2.593,1.674,4.371 c0,6.258-3.809,7.635-7.438,8.038c0.585,0.503,1.106,1.497,1.106,3.017c0,2.178-0.02,3.935-0.02,4.469 c0,0.436,0.293,0.942,1.12,0.783c6.467-2.158,11.13-8.26,11.13-15.454C32.579,7.293,25.285,0,16.288,0z">
	</path>
</svg>

<svg width="33" height="32" viewBox="0 0 33 32" fill="none" xmlns="http://www.w3.org/2000/svg">
<g clip-path="url(#clip0_101_2)">
<path d="M16.288 0C7.294 0 0 7.293 0 16.291C0 23.487 4.667 29.593 11.141 31.747C11.956 31.896 12.253 31.394 12.253 30.962C12.253 30.575 12.239 29.551 12.231 28.192C7.7 29.176 6.744 26.008 6.744 26.008C6.003 24.126 4.935 23.625 4.935 23.625C3.456 22.614 5.047 22.635 5.047 22.635C6.682 22.75 7.542 24.314 7.542 24.314C8.995 26.803 11.355 26.085 12.283 25.668C12.431 24.615 12.852 23.897 13.317 23.49C9.7 23.079 5.897 21.681 5.897 15.439C5.897 13.661 6.532 12.207 7.574 11.068C7.406 10.656 6.847 9 7.734 6.757C7.734 6.757 9.102 6.319 12.213 8.427C13.512 8.066 14.906 7.885 16.291 7.879C17.674 7.885 19.068 8.066 20.369 8.427C23.479 6.319 24.844 6.757 24.844 6.757C25.733 9 25.174 10.656 25.006 11.068C26.05 12.207 26.68 13.661 26.68 15.439C26.68 21.697 22.871 23.074 19.242 23.477C19.827 23.98 20.348 24.974 20.348 26.494C20.348 28.672 20.328 30.429 20.328 30.963C20.328 31.399 20.621 31.905 21.448 31.746C27.915 29.588 32.578 23.486 32.578 16.292C32.579 7.293 25.285 0 16.288 0Z" fill="black"/>
</g>
<defs>
<clipPath id="clip0_101_2">
<rect width="32.579" height="31.775" fill="white"/>
</clipPath>
</defs>
</svg>
